brandFactory_export/3.Masa/Sms _3Masa.svg

<?xml version="1.0" encoding="UTF-8"?>
<svg width="24px" height="24px" viewBox="0 0 24 24" version="1.1" xmlns="http://www.w3.org/2000/svg" xmlns:xlink="http://www.w3.org/1999/xlink">
    <title>3.Masa/Sms _3Masa</title>
    <g id="Symbols" stroke="none" stroke-width="1" fill="none" fill-rule="evenodd">
        <g id="3.Masa/Sms-_3Masa" fill="#5CB615" fill-rule="nonzero">
            <path d="M19.7310924,1.01008403 C21.8957983,1.01008403 23.6571429,2.70756303 23.6571429,4.79495798 L23.6571429,15.312605 C23.6571429,17.4 21.8957983,19.097479 19.7310924,19.097479 L8.19495798,19.097479 L5.92941176,21.897479 C5.66386555,22.2403361 5.17310924,22.6638655 4.37983193,22.6638655 C3.35798319,22.6638655 2.49747899,21.8470588 2.49747899,20.8823529 L2.49747899,18.8588235 C1.00840336,18.3210084 0.0201680672,16.8991597 0.0334779374,15.312605 L0.0334779374,4.79495798 C0.0334779374,2.70756303 1.79495798,1.01008403 3.96302521,1.01008403 L19.7310924,1.01008403 Z M5.67394958,9.37983193 C4.83697479,9.05714286 4.49411765,8.87226891 4.49411765,8.34453782 C4.49411765,8.11932773 4.49411765,7.65210084 5.57983193,7.65210084 C6.01680672,7.65210084 6.35966387,7.72941176 6.63865546,7.81008403 C6.76302521,7.84705882 6.89747899,7.8302521 7.01176471,7.76638655 C7.12268908,7.70252101 7.20672269,7.59831933 7.24033613,7.47394958 L7.30420168,7.22857143 C7.36470588,6.98319328 7.21680672,6.73445378 6.97142857,6.67058824 C5.70084034,6.31092437 4.52436975,6.40168067 3.86554622,6.96638655 C3.46890756,7.30252101 3.2605042,7.79327731 3.2605042,8.38151261 C3.2605042,9.74957983 4.36638655,10.1764706 5.1697479,10.4890756 C6.03697479,10.8252101 6.38991597,11.0168067 6.38991597,11.5915966 C6.38991597,11.9512605 6.2487395,12.1226891 6.12436975,12.2 C5.99327731,12.287395 5.71764706,12.3915966 5.15966387,12.3915966 C4.72268908,12.3915966 4.28907563,12.3243697 3.86218487,12.1932773 C3.73445378,12.1529412 3.59663866,12.1663866 3.4789916,12.2336134 C3.36470588,12.2941176 3.28067227,12.4016807 3.24705882,12.5294118 L3.18319328,12.7815126 C3.12605042,13.0134454 3.25714286,13.2487395 3.4789916,13.3260504 C3.83865546,13.4571429 4.49747899,13.5915966 5.16638655,13.5915966 C6.73277311,13.5915966 7.63361345,12.8588235 7.63361345,11.5815126 C7.63361345,10.1361345 6.50084034,9.69915966 5.67394958,9.37983193 Z M14.4739496,6.5697479 L14.2218487,6.5697479 C14.0436975,6.5697479 13.8823529,6.66386555 13.794958,6.81848739 L11.8386555,10.4016807 L9.93277311,6.81848739 C9.8487395,6.6605042 9.68403361,6.56638655 9.50588235,6.56638655 L9.23361345,6.56638655 C8.96806723,6.56638655 8.75294118,6.77478992 8.75294118,7.03361345 L8.75294118,13 C8.75294118,13.2554622 8.96806723,13.4672269 9.23361345,13.4672269 L9.48907563,13.4672269 C9.75462185,13.4672269 9.9697479,13.2588235 9.9697479,13 L9.9697479,9.46722689 L11.2605042,11.897479 C11.3445378,12.0554622 11.5092437,12.1495798 11.687395,12.1495798 L11.9596639,12.1495798 C12.1378151,12.1495798 12.2991597,12.0554622 12.3865546,11.9008403 L13.7411765,9.42016807 L13.7411765,13 C13.7411765,13.2588235 13.9563025,13.4672269 14.2218487,13.4672269 L14.4739496,13.4672269 C14.7394958,13.4672269 14.9546218,13.2588235 14.9546218,13 L14.9546218,7.03697479 C14.9512605,6.77478992 14.7361345,6.56638655 14.4739496,6.5697479 L14.4739496,6.5697479 Z M18.5579832,9.37983193 C17.7210084,9.05714286 17.3815126,8.87226891 17.3815126,8.34453782 C17.3815126,8.11932773 17.3815126,7.65210084 18.4672269,7.65210084 C18.9042017,7.65210084 19.2470588,7.72941176 19.5260504,7.81008403 C19.6504202,7.84705882 19.7882353,7.8302521 19.902521,7.76638655 C20.0134454,7.70252101 20.097479,7.59831933 20.1277311,7.47394958 L20.1915966,7.22857143 C20.2521008,6.98319328 20.1042017,6.73445378 19.8588235,6.67058824 C18.5882353,6.31092437 17.4117647,6.40168067 16.7529412,6.96638655 C16.3563025,7.30252101 16.1478992,7.79327731 16.1478992,8.38151261 C16.1478992,9.74957983 17.2537815,10.1764706 18.0571429,10.4890756 C18.9243697,10.8252101 19.2773109,11.0168067 19.2773109,11.5915966 C19.2773109,11.9512605 19.1361345,12.1226891 19.0084034,12.2 C18.8773109,12.287395 18.6016807,12.3915966 18.0436975,12.3915966 C17.610084,12.3915966 17.1731092,12.3243697 16.7462185,12.1932773 C16.6184874,12.1529412 16.4806723,12.1663866 16.3630252,12.2336134 C16.2487395,12.2941176 16.1647059,12.4016807 16.1310924,12.5294118 L16.0672269,12.7815126 C16.010084,13.0134454 16.1411765,13.2487395 16.3630252,13.3260504 C16.7226891,13.4571429 17.3815126,13.5915966 18.0504202,13.5915966 C19.6168067,13.5915966 20.5176471,12.8588235 20.5176471,11.5815126 C20.5176471,10.1361345 19.3848739,9.69915966 18.5579832,9.37983193 Z" id="Sms-_3Masa"></path>
        </g>
    </g>
</svg>

<svg width="24" height="24" viewBox="0 0 24 24" xmlns="http://www.w3.org/2000/svg"><path d="M19.731 1.01c2.165 0 3.926 1.698 3.926 3.785v10.518c0 2.087-1.761 3.784-3.926 3.784H8.195l-2.266 2.8a1.91 1.91 0 01-1.55.767c-1.021 0-1.882-.817-1.882-1.782V18.86a3.736 3.736 0 01-2.464-3.546V4.795c0-2.087 1.762-3.785 3.93-3.785h15.768zM5.674 9.38c-.837-.323-1.18-.508-1.18-1.035 0-.226 0-.693 1.086-.693.437 0 .78.077 1.059.158a.483.483 0 00.601-.336l.064-.245a.462.462 0 00-.333-.558c-1.27-.36-2.447-.27-3.105.295-.397.337-.605.827-.605 1.416 0 1.368 1.105 1.794 1.909 2.107.867.336 1.22.528 1.22 1.103 0 .36-.141.53-.266.608-.13.087-.406.192-.964.192-.437 0-.87-.068-1.298-.199a.478.478 0 00-.383.04.468.468 0 00-.232.296l-.064.253a.461.461 0 00.296.544c.36.131 1.018.266 1.687.266 1.567 0 2.468-.733 2.468-2.01 0-1.446-1.133-1.883-1.96-2.202zm8.8-2.81h-.252a.487.487 0 00-.427.248l-1.956 3.584-1.906-3.584a.48.48 0 00-.427-.252h-.272a.474.474 0 00-.481.468V13c0 .255.215.467.48.467h.256c.266 0 .48-.208.48-.467V9.467l1.292 2.43a.48.48 0 00.426.253h.273c.178 0 .34-.095.427-.25l1.354-2.48V13c0 .259.215.467.48.467h.253c.265 0 .48-.208.48-.467V7.037a.473.473 0 00-.48-.467zm4.084 2.81c-.837-.323-1.176-.508-1.176-1.035 0-.226 0-.693 1.085-.693.437 0 .78.077 1.06.158.123.037.261.02.376-.044a.47.47 0 00.225-.292l.064-.245a.462.462 0 00-.333-.558c-1.27-.36-2.447-.27-3.106.295-.397.337-.605.827-.605 1.416 0 1.368 1.106 1.794 1.91 2.107.866.336 1.22.528 1.22 1.103 0 .36-.142.53-.27.608-.13.087-.406.192-.964.192-.434 0-.87-.068-1.298-.199a.478.478 0 00-.383.04.468.468 0 00-.232.296l-.064.253a.461.461 0 00.296.544c.36.131 1.019.266 1.687.266 1.567 0 2.468-.733 2.468-2.01 0-1.446-1.133-1.883-1.96-2.202z" fill="#5CB615" fill-rule="nonzero"/></svg>
